;Generated by Cura LulzBot Edition GCodeWriter Version: 3.2.23
;FLAVOR:Marlin
;TIME:3186
;Filament used: 1.05963m
;Layer height: 0.25
;Generated with Cura_SteamEngine 3.2.23
M82 ;absolute extrusion mode
;This G-Code has been generated specifically for the LulzBot TAZ 6 with standard extruder
M75 ; start GLCD timer
G26 ; clear potential 'probe fail' condition
G21 ; set units to Millimetres
M107 ; disable fans
G90 ; absolute positioning
M82 ; set extruder to absolute mode
G92 E0 ; set extruder position to 0
M140 S105 ; start bed heating up
G28 XY ; home X and Y
G1 X-19 Y258 F1000 ; move to safe homing position
M109 R170 ; soften filament before homing Z
G28 Z ; home Z
G1 E-30 F100 ; retract filament
M109 R170 ; wait for extruder to reach wiping temp
G1 X-15 Y100 F3000 ; move above wiper pad
G1 Z1 ; push nozzle into wiper
G1 X-17 Y95 F1000 ; slow wipe
G1 X-17 Y90 F1000 ; slow wipe
G1 X-17 Y85 F1000 ; slow wipe
G1 X-15 Y90 F1000 ; slow wipe
G1 X-17 Y80 F1000 ; slow wipe
G1 X-15 Y95 F1000 ; slow wipe
G1 X-17 Y75 F2000 ; fast wipe
G1 X-15 Y65 F2000 ; fast wipe
G1 X-17 Y70 F2000 ; fast wipe
G1 X-15 Y60 F2000 ; fast wipe
G1 X-17 Y55 F2000 ; fast wipe
G1 X-15 Y50 F2000 ; fast wipe
G1 X-17 Y40 F2000 ; fast wipe
G1 X-15 Y45 F2000 ; fast wipe
G1 X-17 Y35 F2000 ; fast wipe
G1 X-15 Y40 F2000 ; fast wipe
G1 X-17 Y70 F2000 ; fast wipe
G1 X-15 Y30 Z2 F2000 ; fast wipe
G1 X-17 Y35 F2000 ; fast wipe
G1 X-15 Y25 F2000 ; fast wipe
G1 X-17 Y30 F2000 ; fast wipe
G1 X-15 Y25 Z1.5 F1000 ; slow wipe
G1 X-17 Y23 F1000 ; slow wipe
G1 Z10 ; raise extruder
M109 R170 ; wait for extruder to reach probe temp
G1 X-9 Y-9 ; move above first probe point
M204 S100 ; set probing acceleration
G29 ; start auto-leveling sequence
M425 Z			     ; use measured Z backlash for compensation
M425 Z F0		     ; turn off measured Z backlash compensation. (if activated in the quality settings, this command will automatically be ignored)
M204 S500 ; restore standard acceleration
G1 X0 Y0 Z15 F5000 ; move up off last probe point
G4 S1 ; pause
M400 ; wait for moves to finish
M117 Heating... ; progress indicator message on LCD
M109 R245 ; wait for extruder to reach printing temp
M190 S105 ; wait for bed to reach printing temp
G1 Z2 E0 F75 ; prime tiny bit of filament into the nozzle
M117 TAZ 6 Printing... ; progress indicator message on LCD

M221 S100
;LAYER_COUNT:64
;LAYER:0
M107
G0 F1750 X123.216 Y119.174 Z0.4
;TYPE:SKIRT
G1 F600 X123.61 Y118.794 E0.01602
G1 X124.055 Y118.475 E0.03205
G1 X124.542 Y118.225 E0.04807
G1 X125.06 Y118.048 E0.06409
G1 X125.598 Y117.949 E0.0801
G1 X126.009 Y117.926 E0.09215
G1 X153.991 Y117.927 E0.91111
G1 X154.537 Y117.967 E0.92714
G1 X155.071 Y118.086 E0.94315
G1 X155.583 Y118.281 E0.95918
G1 X156.06 Y118.549 E0.9752
G1 X156.493 Y118.884 E0.99122
G1 X156.873 Y119.278 E1.00724
G1 X157.192 Y119.723 E1.02327
G1 X157.442 Y120.21 E1.03929
G1 X157.619 Y120.728 E1.05531
G1 X157.718 Y121.266 E1.07132
G1 X157.741 Y121.677 E1.08337
G1 X157.741 Y158.324 E2.15594
G1 X157.701 Y158.87 E2.17196
G1 X157.582 Y159.404 E2.18798
G1 X157.387 Y159.915 E2.20398
G1 X157.119 Y160.393 E2.22002
G1 X156.784 Y160.826 E2.23604
G1 X156.39 Y161.206 E2.25207
G1 X155.945 Y161.525 E2.26809
G1 X155.458 Y161.775 E2.28411
G1 X154.94 Y161.952 E2.30013
G1 X154.402 Y162.051 E2.31614
G1 X153.991 Y162.074 E2.32819
G1 X126.009 Y162.074 E3.14716
G1 X125.463 Y162.034 E3.16318
G1 X124.929 Y161.915 E3.17919
G1 X124.418 Y161.72 E3.1952
G1 X123.94 Y161.452 E3.21124
G1 X123.507 Y161.117 E3.22726
G1 X123.127 Y160.723 E3.24328
G1 X122.808 Y160.278 E3.25931
G1 X122.558 Y159.791 E3.27533
G1 X122.381 Y159.273 E3.29135
G1 X122.282 Y158.735 E3.30736
G1 X122.259 Y158.324 E3.31941
G1 X122.259 Y121.676 E4.39201
G1 X122.299 Y121.13 E4.40803
G1 X122.418 Y120.596 E4.42405
G1 X122.613 Y120.085 E4.44006
G1 X122.881 Y119.607 E4.45609
G1 X123.216 Y119.174 E4.47212
G0 F1750 X123.709 Y119.38
G1 F600 X124.096 Y119.048 E4.48704
G1 X124.531 Y118.782 E4.50196
G1 X125.001 Y118.586 E4.51687
G1 X125.496 Y118.467 E4.53177
G1 X126.009 Y118.426 E4.54683
G1 X153.991 Y118.427 E5.3658
G1 X154.499 Y118.467 E5.38071
G1 X154.995 Y118.586 E5.39564
G1 X155.465 Y118.781 E5.41053
G1 X155.9 Y119.047 E5.42546
G1 X156.287 Y119.377 E5.44034
G1 X156.619 Y119.764 E5.45526
G1 X156.885 Y120.199 E5.47019
G1 X157.081 Y120.669 E5.48509
G1 X157.2 Y121.164 E5.49999
G1 X157.241 Y121.677 E5.51505
G1 X157.241 Y158.324 E6.58763
G1 X157.201 Y158.832 E6.60254
G1 X157.082 Y159.327 E6.61744
G1 X156.887 Y159.798 E6.63236
G1 X156.621 Y160.233 E6.64728
G1 X156.291 Y160.62 E6.66217
G1 X155.904 Y160.952 E6.67709
G1 X155.469 Y161.218 E6.69202
G1 X154.999 Y161.414 E6.70692
G1 X154.504 Y161.533 E6.72182
G1 X153.991 Y161.574 E6.73688
G1 X126.009 Y161.574 E7.55585
G1 X125.501 Y161.534 E7.57076
G1 X125.006 Y161.415 E7.58566
G1 X124.535 Y161.22 E7.60058
G1 X124.1 Y160.954 E7.61551
G1 X123.713 Y160.624 E7.63039
G1 X123.381 Y160.237 E7.64532
G1 X123.115 Y159.802 E7.66024
G1 X122.919 Y159.332 E7.67514
G1 X122.8 Y158.837 E7.69004
G1 X122.759 Y158.324 E7.7051
G1 X122.759 Y121.676 E8.77771
G1 X122.799 Y121.168 E8.79262
G1 X122.918 Y120.673 E8.80752
G1 X123.113 Y120.202 E8.82244
G1 X123.379 Y119.767 E8.83736
G1 X123.709 Y119.38 E8.85225
G1 F600 E7.85225
G0 F1750 X135.257 Y121.002
G0 X135.257 Y122.435
G0 X142.956 Y123.474
G0 X143.028 Y123.542
;TYPE:WALL-INNER
G1 F600 E8.85225
G1 X142.702 Y123.938 E8.86726
G1 X142.427 Y124.37 E8.88225
G1 X142.21 Y124.832 E8.89719
G1 X142.051 Y125.319 E8.91218
G1 X141.955 Y125.824 E8.92723
G1 X141.924 Y126.333 E8.94215
G1 X141.955 Y126.843 E8.95711
G1 X142.051 Y127.348 E8.97215
G1 X142.21 Y127.834 E8.98712
G1 X142.427 Y128.296 E9.00206
G1 X142.702 Y128.73 E9.01709
G1 X143.029 Y129.124 E9.03208
G1 X143.402 Y129.474 E9.04705
G1 X143.815 Y129.775 E9.06201
G1 X144.263 Y130.022 E9.07698
G1 X144.741 Y130.211 E9.09202
G1 X145.236 Y130.337 E9.10697
G1 X145.743 Y130.402 E9.12193
G1 X146.257 Y130.402 E9.13698
G1 X146.764 Y130.337 E9.15194
G1 X147.259 Y130.211 E9.16689
G1 X147.737 Y130.022 E9.18193
G1 X148.185 Y129.775 E9.1969
G1 X148.598 Y129.474 E9.21186
G1 X148.971 Y129.124 E9.22683
G1 X149.298 Y128.73 E9.24181
G1 X149.573 Y128.296 E9.25685
G1 X149.79 Y127.834 E9.27179
G1 X149.949 Y127.348 E9.28676
G1 X150.045 Y126.843 E9.3018
G1 X150.076 Y126.333 E9.31676
G1 X150.045 Y125.824 E9.33168
G1 X149.95 Y125.327 E9.34649
G1 X149.793 Y124.842 E9.36141
G1 X149.578 Y124.379 E9.37635
G1 X149.304 Y123.945 E9.39137
G1 X148.965 Y123.536 E9.40692
G1 X148.59 Y123.187 E9.42191
G1 X148.213 Y122.913 E9.43555
G1 X148.178 Y122.888 E9.43681
G1 X147.727 Y122.641 E9.45186
G1 X147.252 Y122.454 E9.4668
G1 X147.106 Y122.417 E9.47121
G1 X147.252 Y122.417
G1 X147.727 Y122.417
G1 X148.178 Y122.417 E9.48024
G1 X148.222 Y122.417 E9.48149
G1 X153.25 Y122.417 E9.62865
G1 X153.25 Y157.583 E10.65788
G1 X147.594 Y157.583 E10.82341
G1 X147.259 Y157.583 E10.83322
G1 X146.764 Y157.583 E10.84771
G1 X146.257 Y157.583 E10.86254
G1 X145.743 Y157.583 E10.87759
G1 X145.236 Y157.583 E10.89243
G1 X144.741 Y157.583 E10.90691
G1 X144.406 Y157.583 E10.91672
G1 X135.593 Y157.583 E11.17465
G1 X135.258 Y157.583 E11.18446
G1 X134.764 Y157.583 E11.19892
G1 X134.257 Y157.583 E11.21376
G1 X133.743 Y157.583 E11.2288
G1 X133.236 Y157.583 E11.24364
G1 X132.742 Y157.583 E11.2581
G1 X132.407 Y157.583 E11.2679
G1 X126.75 Y157.583 E11.43347
G1 X126.75 Y122.417 E12.46269
G1 X131.777 Y122.417 E12.60982
G1 X131.807 Y122.417 E12.6107
G1 X132.257 Y122.417 E12.62387
G1 X132.732 Y122.417 E12.63777
G1 X132.897 Y122.417 E12.6426
G1 X132.732 Y122.46
G1 X132.257 Y122.648 E12.64506
G1 X131.807 Y122.897 E12.65617
G1 X131.783 Y122.914 E12.65701
G1 X131.397 Y123.197 E12.67102
G1 X131.028 Y123.542 E12.6858
G1 X130.701 Y123.938 E12.70084
G1 X130.428 Y124.369 E12.71577
G1 X130.209 Y124.832 E12.73076
G1 X130.051 Y125.319 E12.74574
G1 X129.955 Y125.824 E12.76079
G1 X129.924 Y126.333 E12.77571
G1 X129.955 Y126.843 E12.79067
G1 X130.051 Y127.347 E12.80568
G1 X130.209 Y127.834 E12.82067
G1 X130.428 Y128.297 E12.83566
G1 X130.702 Y128.73 E12.85065
G1 X131.029 Y129.124 E12.86564
G1 X131.402 Y129.474 E12.88061
G1 X131.815 Y129.775 E12.89557
G1 X132.264 Y130.022 E12.91057
G1 X132.742 Y130.211 E12.92561
G1 X133.236 Y130.337 E12.94053
G1 X133.743 Y130.402 E12.95549
G1 X134.257 Y130.402 E12.97053
G1 X134.764 Y130.337 E12.98549
G1 X135.258 Y130.211 E13.00042
G1 X135.736 Y130.022 E13.01546
G1 X136.185 Y129.775 E13.03046
G1 X136.598 Y129.474 E13.04541
G1 X136.971 Y129.124 E13.06039
G1 X137.298 Y128.73 E13.07537
G1 X137.572 Y128.297 E13.09037
G1 X137.791 Y127.833 E13.10538
G1 X137.948 Y127.346 E13.12036
G1 X138.044 Y126.845 E13.13529
G1 X138.076 Y126.341 E13.15007
G1 X138.046 Y125.833 E13.16496
G1 X137.95 Y125.328 E13.18001
G1 X137.794 Y124.843 E13.19492
G1 X137.578 Y124.379 E13.2099
G1 X137.304 Y123.945 E13.22492
G1 X136.965 Y123.536 E13.24047
G1 X136.59 Y123.187 E13.25546
G1 X136.213 Y122.913 E13.2691
G1 X136.178 Y122.888 E13.27036
G1 X135.727 Y122.641 E13.28541
G1 X135.251 Y122.454 E13.30038
G1 X135.105 Y122.417 E13.30479
G1 X135.251 Y122.417
G1 X135.727 Y122.417
G1 X136.178 Y122.417 E13.31381
G1 X136.222 Y122.417 E13.31507
G1 X143.776 Y122.417 E13.53616
G1 X143.808 Y122.417 E13.53709
G1 X144.257 Y122.417 E13.55023
G1 X144.731 Y122.417 E13.56411
G1 X144.897 Y122.417 E13.56896
G1 X144.731 Y122.46
G1 X144.257 Y122.649 E13.57146
G1 X143.808 Y122.896 E13.58251
G1 X143.783 Y122.914 E13.5834
G1 X143.397 Y123.197 E13.59741
G1 X143.028 Y123.542 E13.61219
G0 F1750 X142.956 Y123.474
G0 X142.392 Y124.351
G0 X142.013 Y125.31
G0 X141.884 Y126.333
G0 X141.956 Y126.912
G0 X142.956 Y132.474
G0 X143.028 Y132.542
G1 F600 X142.702 Y132.938 E13.6272
G1 X142.427 Y133.37 E13.64219
G1 X142.21 Y133.832 E13.65713
G1 X142.051 Y134.319 E13.67212
G1 X141.955 Y134.824 E13.68717
G1 X141.924 Y135.333 E13.70209
G1 X141.955 Y135.843 E13.71705
G1 X142.051 Y136.348 E13.73209
G1 X142.21 Y136.834 E13.74706
G1 X142.427 Y137.296 E13.762
G1 X142.702 Y137.73 E13.77703
G1 X143.029 Y138.124 E13.79202
G1 X143.402 Y138.474 E13.80699
G1 X143.815 Y138.775 E13.82195
G1 X144.263 Y139.022 E13.83692
G1 X144.741 Y139.211 E13.85196
G1 X145.236 Y139.337 E13.86691
G1 X145.743 Y139.402 E13.88187
G1 X146.257 Y139.402 E13.89692
G1 X146.764 Y139.337 E13.91188
G1 X147.259 Y139.211 E13.92683
G1 X147.737 Y139.022 E13.94187
G1 X148.185 Y138.775 E13.95684
G1 X148.598 Y138.474 E13.9718
G1 X148.971 Y138.124 E13.98677
G1 X149.298 Y137.73 E14.00176
G1 X149.573 Y137.296 E14.01679
G1 X149.79 Y136.834 E14.03173
G1 X149.949 Y136.348 E14.0467
G1 X150.045 Y135.843 E14.06174
G1 X150.076 Y135.341 E14.07646
G1 X150.046 Y134.833 E14.09136
G1 X149.951 Y134.328 E14.1064
G1 X149.793 Y133.841 E14.12138
G1 X149.578 Y133.379 E14.1363
G1 X149.304 Y132.945 E14.15132
G1 X148.965 Y132.536 E14.16687
G1 X148.59 Y132.187 E14.18186
G1 X148.178 Y131.888 E14.19676
G1 X147.727 Y131.641 E14.21181
G1 X147.252 Y131.454 E14.22675
G1 X146.755 Y131.328 E14.24175
G1 X146.247 Y131.265 E14.25674
G1 X145.736 Y131.266 E14.27169
G1 X145.228 Y131.331 E14.28668
G1 X144.731 Y131.46 E14.30171
G1 X144.257 Y131.649 E14.31664
G1 X143.808 Y131.896 E14.33164
G1 X143.397 Y132.197 E14.34655
G1 X143.028 Y132.542 E14.36134
G0 F1750 X142.956 Y132.474
G0 X138.144 Y134.81
G0 X138.045 Y134.822
G1 F600 X137.949 Y134.327 E14.3761
G1 X137.795 Y133.843 E14.39096
G1 X137.578 Y133.379 E14.40595
G1 X137.304 Y132.945 E14.42097
G1 X136.965 Y132.536 E14.43652
G1 X136.59 Y132.187 E14.45152
G1 X136.178 Y131.888 E14.46641
G1 X135.727 Y131.641 E14.48146
G1 X135.251 Y131.454 E14.49643
G1 X134.755 Y131.328 E14.51141
G1 X134.247 Y131.265 E14.52639
G1 X133.736 Y131.266 E14.54135
G1 X133.227 Y131.331 E14.55637
G1 X132.732 Y131.46 E14.57134
G1 X132.257 Y131.648 E14.58629
G1 X131.807 Y131.897 E14.60134
G1 X131.397 Y132.197 E14.61621
G1 X131.028 Y132.542 E14.63099
G1 X130.701 Y132.938 E14.64603
G1 X130.428 Y133.369 E14.66096
G1 X130.209 Y133.832 E14.67595
G1 X130.051 Y134.319 E14.69093
G1 X129.955 Y134.824 E14.70598
G1 X129.924 Y135.333 E14.7209
G1 X129.955 Y135.843 E14.73586
G1 X130.051 Y136.347 E14.75087
G1 X130.209 Y136.834 E14.76586
G1 X130.428 Y137.297 E14.78085
G1 X130.702 Y137.73 E14.79584
G1 X131.029 Y138.124 E14.81083
G1 X131.402 Y138.474 E14.8258
G1 X131.815 Y138.775 E14.84076
G1 X132.264 Y139.022 E14.85576
G1 X132.742 Y139.211 E14.8708
G1 X133.236 Y139.337 E14.88572
G1 X133.743 Y139.402 E14.90068
G1 X134.257 Y139.402 E14.91572
G1 X134.764 Y139.337 E14.93068
G1 X135.258 Y139.211 E14.94561
G1 X135.736 Y139.022 E14.96065
G1 X136.185 Y138.775 E14.97565
G1 X136.598 Y138.474 E14.9906
G1 X136.971 Y138.124 E15.00558
G1 X137.298 Y137.73 E15.02056
G1 X137.572 Y137.297 E15.03556
G1 X137.791 Y136.833 E15.05057
G1 X137.948 Y136.347 E15.06552
G1 X138.045 Y135.845 E15.08049
G1 X138.076 Y135.333 E15.0955
G1 X138.045 Y134.822 E15.11048
G0 F1750 X138.144 Y134.81
G0 X142.956 Y141.474
G0 X143.028 Y141.542
G1 F600 X142.702 Y141.938 E15.12549
G1 X142.427 Y142.37 E15.14048
G1 X142.21 Y142.832 E15.15542
G1 X142.051 Y143.319 E15.17042
G1 X141.955 Y143.824 E15.18546
G1 X141.924 Y144.333 E15.20039
G1 X141.955 Y144.843 E15.21534
G1 X142.051 Y145.348 E15.23038
G1 X142.21 Y145.834 E15.24535
G1 X142.427 Y146.296 E15.26029
G1 X142.702 Y146.73 E15.27533
G1 X143.029 Y147.124 E15.29031
G1 X143.402 Y147.474 E15.30528
G1 X143.815 Y147.775 E15.32024
G1 X144.263 Y148.022 E15.33521
G1 X144.741 Y148.211 E15.35026
G1 X145.236 Y148.337 E15.36521
G1 X145.743 Y148.402 E15.38017
G1 X146.257 Y148.402 E15.39521
G1 X146.764 Y148.337 E15.41017
G1 X147.259 Y148.211 E15.42512
G1 X147.737 Y148.022 E15.44016
G1 X148.185 Y147.775 E15.45514
G1 X148.598 Y147.474 E15.47009
G1 X148.971 Y147.124 E15.48506
G1 X149.298 Y146.73 E15.50005
G1 X149.573 Y146.296 E15.51509
G1 X149.79 Y145.834 E15.53002
G1 X149.949 Y145.348 E15.54499
G1 X150.045 Y144.843 E15.56004
G1 X150.076 Y144.333 E15.57499
G1 X150.045 Y143.824 E15.58991
G1 X149.95 Y143.327 E15.60472
G1 X149.793 Y142.842 E15.61964
G1 X149.578 Y142.379 E15.63458
G1 X149.304 Y141.945 E15.64961
G1 X148.965 Y141.536 E15.66515
G1 X148.59 Y141.187 E15.68015
G1 X148.178 Y140.888 E15.69505
G1 X147.727 Y140.641 E15.7101
G1 X147.252 Y140.454 E15.72504
G1 X146.755 Y140.328 E15.74004
G1 X146.247 Y140.265 E15.75502
G1 X145.736 Y140.266 E15.76998
G1 X145.228 Y140.331 E15.78497
G1 X144.731 Y140.46 E15.8
G1 X144.257 Y140.649 E15.81493
G1 X143.808 Y140.896 E15.82993
G1 X143.397 Y141.197 E15.84484
G1 X143.028 Y141.542 E15.85963
G0 F1750 X142.956 Y141.474
G0 X138.144 Y143.81
G0 X138.045 Y143.822
G1 F600 X137.949 Y143.327 E15.87438
G1 X137.795 Y142.843 E15.88925
G1 X137.578 Y142.379 E15.90424
G1 X137.304 Y141.945 E15.91926
G1 X136.965 Y141.536 E15.93481
G1 X136.59 Y141.187 E15.9498
G1 X136.178 Y140.888 E15.9647
G1 X135.727 Y140.641 E15.97975
G1 X135.251 Y140.454 E15.99472
G1 X134.755 Y140.328 E16.0097
G1 X134.247 Y140.265 E16.02468
G1 X133.736 Y140.266 E16.03964
G1 X133.227 Y140.331 E16.05465
G1 X132.732 Y140.46 E16.06963
G1 X132.257 Y140.648 E16.08458
G1 X131.807 Y140.897 E16.09963
G1 X131.397 Y141.197 E16.1145
G1 X131.028 Y141.542 E16.12928
G1 X130.701 Y141.938 E16.14431
G1 X130.428 Y142.369 E16.15925
G1 X130.209 Y142.832 E16.17424
G1 X130.051 Y143.319 E16.18922
G1 X129.955 Y143.824 E16.20427
G1 X129.924 Y144.333 E16.21919
G1 X129.955 Y144.843 E16.23414
G1 X130.051 Y145.347 E16.24916
G1 X130.209 Y145.834 E16.26415
G1 X130.428 Y146.297 E16.27914
G1 X130.702 Y146.73 E16.29413
G1 X131.029 Y147.124 E16.30912
G1 X131.402 Y147.474 E16.32409
G1 X131.815 Y147.775 E16.33905
G1 X132.264 Y148.022 E16.35404
G1 X132.742 Y148.211 E16.36909
G1 X133.236 Y148.337 E16.38401
G1 X133.743 Y148.402 E16.39897
G1 X134.257 Y148.402 E16.41401
G1 X134.764 Y148.337 E16.42897
G1 X135.258 Y148.211 E16.44389
G1 X135.736 Y148.022 E16.45894
G1 X136.185 Y147.775 E16.47394
G1 X136.598 Y147.474 E16.48889
G1 X136.971 Y147.124 E16.50386
G1 X137.298 Y146.73 E16.51885
G1 X137.572 Y146.297 E16.53385
G1 X137.791 Y145.833 E16.54886
G1 X137.948 Y145.347 E16.56381
G1 X138.045 Y144.845 E16.57878
G1 X138.076 Y144.333 E16.59379
G1 X138.045 Y143.822 E16.60877
G0 F1750 X138.144 Y143.81
G0 X138.096 Y144.652
G0 X137.037 Y150.468
