;Generated by Cura LulzBot Edition GCodeWriter Version: 2.6.52
;FLAVOR:RepRap
;TIME:11130
;Filament used: 7.48238m
;Layer height: 0.25
;Generated with Cura_SteamEngine 2.6.52
;This G-Code has been generated specifically for the LulzBot TAZ 6 with standard extruder
G26                                 ; clear potential 'probe fail' condition
G21                                 ; set units to Millimetres
M107                                ; disable fans
G90                                 ; absolute positioning
M82                                 ; set extruder to absolute mode
G92 E0                              ; set extruder position to 0
M140 S105    ; start bed heating up
G28 XY                              ; home X and Y
G1 X-19 Y258 F1000                  ; move to safe homing position
M109 R175 ; soften filament before homing Z
G28 Z                               ; home Z
M109 R170   ; wait for extruder to reach wiping temp
G1 E-30 F100                        ; retract filament
G1 X-15 Y100 F3000                  ; move above wiper pad
G1 Z1                               ; push nozzle into wiper
G1 X-17 Y95 F1000                   ; slow wipe
G1 X-17 Y90 F1000                   ; slow wipe
G1 X-17 Y85 F1000                   ; slow wipe
G1 X-15 Y90 F1000                   ; slow wipe
G1 X-17 Y80 F1000                   ; slow wipe
G1 X-15 Y95 F1000                   ; slow wipe
G1 X-17 Y75 F2000                   ; fast wipe
G1 X-15 Y65 F2000                   ; fast wipe
G1 X-17 Y70 F2000                   ; fast wipe
G1 X-15 Y60 F2000                   ; fast wipe
G1 X-17 Y55 F2000                   ; fast wipe
G1 X-15 Y50 F2000                   ; fast wipe
G1 X-17 Y40 F2000                   ; fast wipe
G1 X-15 Y45 F2000                   ; fast wipe
G1 X-17 Y35 F2000                   ; fast wipe
G1 X-15 Y40 F2000                   ; fast wipe
G1 X-17 Y70 F2000                   ; fast wipe
G1 X-15 Y30 Z2 F2000                ; fast wipe
G1 X-17 Y35 F2000                   ; fast wipe
G1 X-15 Y25 F2000                   ; fast wipe
G1 X-17 Y30 F2000                   ; fast wipe
G1 X-15 Y25 Z1.5 F1000              ; slow wipe
G1 X-17 Y23 F1000                   ; slow wipe
G1 Z10                              ; raise extruder
M109 R170  ; wait for extruder to reach probe temp
G1 X-9 Y-9                          ; move above first probe point
M204 S100                           ; set probing acceleration
G29                                 ; start auto-leveling sequence
M204 S500                           ; restore standard acceleration
G1 X0 Y0 Z15 F5000                  ; move up off last probe point
G4 S1                               ; pause
M400                                ; wait for moves to finish
M117 Heating...                     ; progress indicator message on LCD
M109 R245  ; wait for extruder to reach printing temp
M190 S105    ; wait for bed to reach printing temp
G1 Z2 E0 F75                        ; prime tiny bit of filment into the nozzle
M117 TAZ 6 Printing...              ; progress indicator message on LCD

;LAYER_COUNT:99
;LAYER:0
M107
G0 F1750 X98.05 Y90.167 Z0.4
;TYPE:SUPPORT
G1 F600 X98.167 Y90.05 E0.00493
G1 X105.05 Y90.051 E0.20993
G1 X105.05 Y189.95 E3.18526
G1 X98.167 Y189.95 E3.39026
G1 X98.05 Y189.833 E3.39518
G1 X98.05 Y180.467 E3.67414
G1 X99.514 Y179.003 E3.7358
G1 X99.514 Y178.297 E3.75683
G1 X98.05 Y176.833 E3.81849
G1 X98.05 Y148.467 E4.66333
G1 X99.514 Y147.003 E4.72499
G1 X99.514 Y146.297 E4.74602
G1 X98.05 Y144.833 E4.80768
G1 X98.05 Y135.467 E5.08663
G1 X99.514 Y134.003 E5.14829
G1 X99.514 Y133.297 E5.16932
G1 X98.05 Y131.833 E5.23099
G1 X98.05 Y103.467 E6.07582
G1 X99.514 Y102.003 E6.13748
G1 X99.514 Y101.297 E6.15851
G1 X98.05 Y99.833 E6.22018
G1 X98.05 Y90.167 E6.50806
G0 F1750 X98.294 Y90.251
G1 F600 X98.294 Y99.794 E6.79228
G0 F1750 X98.46 Y99.96
G1 F600 X104.85 Y99.96 E6.9826
G0 F1750 X104.85 Y98.294
G1 F600 X98.25 Y98.294 E7.17917
G0 F1750 X98.25 Y96.628
G1 F600 X104.85 Y96.628 E7.37574
G0 F1750 X104.85 Y94.962
G1 F600 X98.25 Y94.962 E7.57231
G0 F1750 X98.25 Y93.296
G1 F600 X104.85 Y93.296 E7.76888
G0 F1750 X104.85 Y91.63
G1 F600 X98.25 Y91.63 E7.96545
G0 F1750 X99.96 Y90.251
G1 F600 X99.96 Y189.75 E10.92887
G0 F1750 X98.294 Y189.75
G1 F600 X98.294 Y180.506 E11.20419
G0 F1750 X98.871 Y179.928
G1 F600 X104.849 Y179.928 E11.38223
G0 F1750 X104.849 Y178.262
G1 F600 X99.713 Y178.262 E11.5352
G0 F1750 X98.294 Y176.794
G1 F600 X98.294 Y148.506 E12.37771
G0 F1750 X98.525 Y148.274
G1 F600 X104.849 Y148.274 E12.56606
G0 F1750 X104.849 Y149.94
G1 F600 X98.249 Y149.94 E12.76263
G0 F1750 X98.249 Y151.606
G1 F600 X104.849 Y151.606 E12.9592
G0 F1750 X104.849 Y153.272
G1 F600 X98.249 Y153.272 E13.15577
G0 F1750 X98.249 Y154.938
G1 F600 X104.849 Y154.938 E13.35234
G0 F1750 X104.849 Y156.604
G1 F600 X98.249 Y156.604 E13.54891
G0 F1750 X98.249 Y158.27
G1 F600 X104.849 Y158.27 E13.74548
G0 F1750 X104.849 Y159.936
G1 F600 X98.249 Y159.936 E13.94205
G0 F1750 X98.249 Y161.602
G1 F600 X104.849 Y161.602 E14.13862
G0 F1750 X104.849 Y163.268
G1 F600 X98.249 Y163.268 E14.33519
G0 F1750 X98.249 Y164.934
G1 F600 X104.849 Y164.934 E14.53176
G0 F1750 X104.849 Y166.6
G1 F600 X98.249 Y166.6 E14.72833
G0 F1750 X98.249 Y168.266
G1 F600 X104.849 Y168.266 E14.9249
G0 F1750 X104.849 Y169.932
G1 F600 X98.249 Y169.932 E15.12148
G0 F1750 X98.249 Y171.598
G1 F600 X104.849 Y171.598 E15.31805
G0 F1750 X104.849 Y173.264
G1 F600 X98.249 Y173.264 E15.51462
G0 F1750 X98.249 Y174.93
G1 F600 X104.849 Y174.93 E15.71119
G0 F1750 X104.849 Y176.596
G1 F600 X98.249 Y176.596 E15.90776
G0 F1750 X98.249 Y181.594
G1 F600 X104.849 Y181.594 E16.10433
G0 F1750 X104.849 Y183.26
G1 F600 X98.249 Y183.26 E16.3009
G0 F1750 X98.249 Y184.926
G1 F600 X104.849 Y184.926 E16.49747
G0 F1750 X104.849 Y186.592
G1 F600 X98.249 Y186.592 E16.69404
G0 F1750 X98.249 Y188.258
G1 F600 X104.849 Y188.258 E16.89061
G0 F1750 X103.292 Y189.75
G1 F600 X103.292 Y90.251 E19.85402
G0 F1750 X101.626 Y90.251
G1 F600 X101.626 Y189.75 E22.81744
G0 F1750 X99.713 Y146.608
G1 F600 X104.849 Y146.608 E22.97041
G0 F1750 X104.849 Y144.942
G1 F600 X98.441 Y144.942 E23.16126
G0 F1750 X98.294 Y144.794
G1 F600 X98.294 Y135.506 E23.43789
G0 F1750 X98.853 Y134.946
G1 F600 X104.849 Y134.946 E23.61647
G0 F1750 X104.849 Y133.28
G1 F600 X99.713 Y133.28 E23.76944
G0 F1750 X98.294 Y131.794
G1 F600 X98.294 Y103.506 E24.61195
G0 F1750 X98.508 Y103.292
G1 F600 X104.85 Y103.292 E24.80084
G0 F1750 X104.85 Y104.958
G1 F600 X98.25 Y104.958 E24.99741
G0 F1750 X98.25 Y106.624
G1 F600 X104.85 Y106.624 E25.19398
G0 F1750 X104.85 Y108.29
G1 F600 X98.25 Y108.29 E25.39055
G0 F1750 X98.25 Y109.956
G1 F600 X104.85 Y109.956 E25.58712
G0 F1750 X104.85 Y111.622
G1 F600 X98.25 Y111.622 E25.78369
G0 F1750 X98.25 Y113.288
G1 F600 X104.85 Y113.288 E25.98026
G0 F1750 X104.85 Y114.954
G1 F600 X98.25 Y114.954 E26.17683
G0 F1750 X98.25 Y116.62
G1 F600 X104.85 Y116.62 E26.3734
G0 F1750 X104.85 Y118.286
G1 F600 X98.25 Y118.286 E26.56997
G0 F1750 X98.249 Y119.952
G1 F600 X104.849 Y119.952 E26.76654
G0 F1750 X104.849 Y121.618
G1 F600 X98.249 Y121.618 E26.96311
G0 F1750 X98.249 Y123.284
G1 F600 X104.849 Y123.284 E27.15968
G0 F1750 X104.849 Y124.95
G1 F600 X98.249 Y124.95 E27.35625
G0 F1750 X98.249 Y126.616
G1 F600 X104.849 Y126.616 E27.55282
G0 F1750 X104.849 Y128.282
G1 F600 X98.249 Y128.282 E27.74939
G0 F1750 X98.249 Y129.948
G1 F600 X104.849 Y129.948 E27.94596
G0 F1750 X104.849 Y131.614
G1 F600 X98.249 Y131.614 E28.14253
G0 F1750 X98.249 Y136.612
G1 F600 X104.849 Y136.612 E28.3391
G0 F1750 X104.849 Y138.278
G1 F600 X98.249 Y138.278 E28.53567
G0 F1750 X98.249 Y139.944
G1 F600 X104.849 Y139.944 E28.73224
G0 F1750 X104.849 Y141.61
G1 F600 X98.249 Y141.61 E28.92881
G0 F1750 X98.249 Y143.276
G1 F600 X104.849 Y143.276 E29.12538
G0 F1750 X104.85 Y101.626
G1 F600 X99.714 Y101.626 E29.27835
G1 F600 E28.27835
G0 F1750 X105.039 Y190.128
G0 X105.572 Y190.661
G0 X174.428 Y190.661
G0 X174.961 Y190.128
G0 X174.95 Y90.05
G1 F600 E29.27835
G1 X181.833 Y90.05 E29.48335
G1 X181.95 Y90.167 E29.48828
G1 X181.95 Y99.833 E29.77616
G1 X180.486 Y101.297 E29.83783
G1 X180.486 Y102.003 E29.85885
G1 X181.95 Y103.467 E29.92052
G1 X181.95 Y131.833 E30.76535
G1 X180.486 Y133.297 E30.82702
G1 X180.486 Y134.003 E30.84804
G1 X181.95 Y135.467 E30.90971
G1 X181.95 Y144.833 E31.18866
G1 X180.486 Y146.297 E31.25032
G1 X180.486 Y147.003 E31.27135
G1 X181.95 Y148.467 E31.33301
G1 X181.95 Y176.833 E32.17785
G1 X180.486 Y178.297 E32.23951
G1 X180.486 Y179.003 E32.26054
G1 X181.95 Y180.467 E32.3222
G1 X181.95 Y189.833 E32.60115
G1 X181.833 Y189.95 E32.60608
G1 X174.95 Y189.95 E32.81108
G1 X174.95 Y90.05 E35.78644
G0 F1750 X175.15 Y91.63
G1 F600 X181.75 Y91.63 E35.98301
G0 F1750 X181.594 Y90.25
G1 F600 X181.594 Y99.906 E36.2706
G0 F1750 X181.539 Y99.96
G1 F600 X175.15 Y99.96 E36.46089
G0 F1750 X175.15 Y98.294
G1 F600 X181.75 Y98.294 E36.65746
G0 F1750 X181.75 Y96.628
G1 F600 X175.15 Y96.628 E36.85403
G0 F1750 X175.15 Y94.962
G1 F600 X181.75 Y94.962 E37.0506
G0 F1750 X181.75 Y93.296
G1 F600 X175.15 Y93.296 E37.24717
G0 F1750 X176.596 Y90.25
G1 F600 X176.596 Y189.75 E40.21061
G0 F1750 X178.262 Y189.75
G1 F600 X178.262 Y90.25 E43.17406
G0 F1750 X179.928 Y90.25
G1 F600 X179.928 Y189.75 E46.13751
G0 F1750 X181.594 Y189.75
G1 F600 X181.594 Y180.394 E46.41616
G0 F1750 X181.128 Y179.928
G1 F600 X175.15 Y179.928 E46.59421
G0 F1750 X175.15 Y178.262
G1 F600 X180.286 Y178.262 E46.74717
G0 F1750 X181.594 Y176.906
G1 F600 X181.594 Y148.394 E47.59636
G0 F1750 X181.474 Y148.274
G1 F600 X175.15 Y148.274 E47.78471
G0 F1750 X175.15 Y149.94
G1 F600 X181.75 Y149.94 E47.98128
G0 F1750 X181.75 Y151.606
G1 F600 X175.15 Y151.606 E48.17785
G0 F1750 X175.15 Y153.272
G1 F600 X181.75 Y153.272 E48.37442
G0 F1750 X181.75 Y154.938
G1 F600 X175.15 Y154.938 E48.57099
G0 F1750 X175.15 Y156.604
G1 F600 X181.75 Y156.604 E48.76756
G0 F1750 X181.75 Y158.27
G1 F600 X175.15 Y158.27 E48.96413
G0 F1750 X175.15 Y159.936
G1 F600 X181.75 Y159.936 E49.1607
G0 F1750 X181.75 Y161.602
G1 F600 X175.15 Y161.602 E49.35727
G0 F1750 X175.15 Y163.268
G1 F600 X181.75 Y163.268 E49.55384
G0 F1750 X181.75 Y164.934
G1 F600 X175.15 Y164.934 E49.75041
G0 F1750 X175.15 Y166.6
G1 F600 X181.75 Y166.6 E49.94698
G0 F1750 X181.75 Y168.266
G1 F600 X175.15 Y168.266 E50.14355
G0 F1750 X175.15 Y169.932
G1 F600 X181.75 Y169.932 E50.34012
G0 F1750 X181.75 Y171.598
G1 F600 X175.15 Y171.598 E50.53669
G0 F1750 X175.15 Y173.264
G1 F600 X181.75 Y173.264 E50.73326
G0 F1750 X181.75 Y174.93
G1 F600 X175.15 Y174.93 E50.92983
G0 F1750 X175.15 Y176.596
G1 F600 X181.75 Y176.596 E51.1264
G0 F1750 X181.75 Y181.594
G1 F600 X175.15 Y181.594 E51.32297
G0 F1750 X175.15 Y183.26
G1 F600 X181.75 Y183.26 E51.51954
G0 F1750 X181.75 Y184.926
G1 F600 X175.15 Y184.926 E51.71611
G0 F1750 X175.15 Y186.592
G1 F600 X181.75 Y186.592 E51.91268
G0 F1750 X181.75 Y188.258
G1 F600 X175.15 Y188.258 E52.10925
G0 F1750 X175.15 Y146.608
G1 F600 X180.286 Y146.608 E52.26222
G0 F1750 X181.558 Y144.942
G1 F600 X175.15 Y144.942 E52.45307
G0 F1750 X175.15 Y143.276
G1 F600 X181.75 Y143.276 E52.64964
G0 F1750 X181.594 Y144.906
G1 F600 X181.594 Y135.394 E52.93294
G0 F1750 X181.146 Y134.946
G1 F600 X175.15 Y134.946 E53.11152
G0 F1750 X175.15 Y133.28
G1 F600 X180.286 Y133.28 E53.26449
G0 F1750 X181.594 Y131.906
G1 F600 X181.594 Y103.394 E54.11368
G0 F1750 X181.493 Y103.292
G1 F600 X175.15 Y103.292 E54.30259
G0 F1750 X175.15 Y104.958
G1 F600 X181.75 Y104.958 E54.49916
G0 F1750 X181.75 Y106.624
G1 F600 X175.15 Y106.624 E54.69573
G0 F1750 X175.15 Y108.29
G1 F600 X181.75 Y108.29 E54.8923
G0 F1750 X181.75 Y109.956
G1 F600 X175.15 Y109.956 E55.08887
G0 F1750 X175.15 Y111.622
G1 F600 X181.75 Y111.622 E55.28544
G0 F1750 X181.75 Y113.288
G1 F600 X175.15 Y113.288 E55.48201
G0 F1750 X175.15 Y114.954
G1 F600 X181.75 Y114.954 E55.67858
G0 F1750 X181.75 Y116.62
G1 F600 X175.15 Y116.62 E55.87515
G0 F1750 X175.15 Y118.286
G1 F600 X181.75 Y118.286 E56.07172
G0 F1750 X181.75 Y119.952
G1 F600 X175.15 Y119.952 E56.26829
G0 F1750 X175.15 Y121.618
G1 F600 X181.75 Y121.618 E56.46486
G0 F1750 X181.75 Y123.284
G1 F600 X175.15 Y123.284 E56.66143
G0 F1750 X175.15 Y124.95
G1 F600 X181.75 Y124.95 E56.85801
G0 F1750 X181.75 Y126.616
G1 F600 X175.15 Y126.616 E57.05458
G0 F1750 X175.15 Y128.282
G1 F600 X181.75 Y128.282 E57.25115
G0 F1750 X181.75 Y129.948
G1 F600 X175.15 Y129.948 E57.44772
G0 F1750 X175.15 Y131.614
G1 F600 X181.75 Y131.614 E57.64429
G0 F1750 X181.75 Y136.612
G1 F600 X175.15 Y136.612 E57.84086
G0 F1750 X175.15 Y138.278
G1 F600 X181.75 Y138.278 E58.03743
G0 F1750 X181.75 Y139.944
G1 F600 X175.15 Y139.944 E58.234
G0 F1750 X175.15 Y141.61
G1 F600 X181.75 Y141.61 E58.43057
G0 F1750 X180.286 Y101.626
G1 F600 X175.15 Y101.626 E58.58354
G1 F600 E57.58354
G0 F1750 X174.965 Y101.626
G0 X173.53 Y101.626
G0 X173.48 Y90.82
G0 X173.55 Y90.75
;TYPE:WALL-INNER
G1 F600 E58.58354
G1 X173.55 Y189.25 E61.5172
G1 X106.45 Y189.25 E63.51566
G1 X106.45 Y90.75 E66.44933
G1 X173.55 Y90.75 E68.44779
G0 F1750 X174.05 Y90.25
;TYPE:WALL-OUTER
G1 F600 X174.05 Y189.75 E71.41124
G1 X105.95 Y189.75 E73.43949
G1 X105.95 Y90.25 E76.40293
G1 X174.05 Y90.25 E78.43118
G0 F1750 X174.05 Y90.5
G0 X173.48 Y90.82
G0 X173.325 Y91.3
;TYPE:SKIN
G1 F600 X172.999 Y90.974 E78.44491
G0 F1750 X172.292 Y90.974
G1 F600 X173.325 Y92.008 E78.48844
G1 X173.413 Y92.096
G0 F1750 X173.325 Y92.715
G1 F600 X171.585 Y90.974 E78.56175
G1 X171.497 Y90.886
G0 F1750 X170.878 Y90.974
G1 F600 X173.325 Y93.422 E78.66484
G1 X173.413 Y93.51
G0 F1750 X173.325 Y94.129
G1 F600 X170.17 Y90.974 E78.79773
G1 X170.082 Y90.886
G0 F1750 X169.463 Y90.974
G1 F600 X173.325 Y94.836 E78.9604
G1 X173.413 Y94.924
G0 F1750 X173.325 Y95.543
G1 F600 X168.756 Y90.974 E79.15284
G1 X168.668 Y90.886
G0 F1750 X168.049 Y90.974
G1 F600 X173.325 Y96.25 E79.37507
G1 X173.413 Y96.338
G0 F1750 X173.325 Y96.957
G1 F600 X167.342 Y90.974 E79.62707
G1 X167.254 Y90.886
G0 F1750 X166.635 Y90.974
G1 F600 X173.325 Y97.664 E79.90886
G1 X173.413 Y97.752
G0 F1750 X173.325 Y98.371
G1 F600 X165.928 Y90.974 E80.22042
G1 X165.84 Y90.886
G0 F1750 X165.221 Y90.974
G1 F600 X173.325 Y99.079 E80.56178
G1 X173.413 Y99.167
G0 F1750 X173.325 Y99.786
G1 F600 X164.514 Y90.974 E80.93292
G1 X164.426 Y90.886
G0 F1750 X163.806 Y90.974
G1 F600 X173.325 Y100.493 E81.33386
G1 X173.413 Y100.581
G0 F1750 X173.325 Y101.2
G1 F600 X163.099 Y90.974 E81.76458
G1 X163.011 Y90.886
G0 F1750 X162.392 Y90.974
G1 F600 X173.325 Y101.907 E82.22508
G1 X173.413 Y101.995
G0 F1750 X173.325 Y102.614
G1 F600 X161.685 Y90.974 E82.71536
G1 X161.597 Y90.886
G0 F1750 X160.978 Y90.974
G1 F600 X173.325 Y103.321 E83.23542
G1 X173.413 Y103.409
G0 F1750 X173.325 Y104.028
G1 F600 X160.271 Y90.974 E83.78525
G1 X160.183 Y90.886
G0 F1750 X159.564 Y90.974
G1 F600 X173.325 Y104.735 E84.36487
G1 X173.413 Y104.823
G0 F1750 X173.325 Y105.443
G1 F600 X158.857 Y90.974 E84.97428
G1 X158.769 Y90.886
G0 F1750 X158.15 Y90.974
G1 F600 X173.325 Y106.15 E85.61347
G1 X173.413 Y106.238
G0 F1750 X173.325 Y106.857
G1 F600 X157.442 Y90.974 E86.28247
G1 X157.354 Y90.886
G0 F1750 X156.735 Y90.974
G1 F600 X173.325 Y107.564 E86.98124
G1 X173.413 Y107.652
G0 F1750 X173.325 Y108.271
G1 F600 X156.028 Y90.974 E87.70979
G1 X155.94 Y90.886
G0 F1750 X155.321 Y90.974
G1 F600 X173.325 Y108.978 E88.46812
G1 X173.413 Y109.066
G0 F1750 X173.325 Y109.685
G1 F600 X154.614 Y90.974 E89.25623
G1 X154.526 Y90.886
G0 F1750 X153.907 Y90.974
G1 F600 X173.325 Y110.392 E90.07411
G1 X173.413 Y110.48
G0 F1750 X173.325 Y111.099
G1 F600 X153.2 Y90.974 E90.92178
G1 X153.112 Y90.886
G0 F1750 X152.493 Y90.974
G1 F600 X173.325 Y111.807 E91.79925
G1 X173.413 Y111.895
G0 F1750 X173.325 Y112.514
G1 F600 X151.786 Y90.974 E92.70649
G1 X151.698 Y90.886
G0 F1750 X151.079 Y90.974
G1 F600 X173.325 Y113.221 E93.64351
G1 X173.413 Y113.309
G0 F1750 X173.325 Y113.928
G1 F600 X150.371 Y90.974 E94.61034
G1 X150.283 Y90.886
G0 F1750 X149.664 Y90.974
G1 F600 X173.325 Y114.635 E95.60694
G1 X173.413 Y114.723
G0 F1750 X173.325 Y115.342
G1 F600 X148.957 Y90.974 E96.63332
G1 X148.869 Y90.886
