;Generated by Cura LulzBot Edition GCodeWriter Version: 2.6.52
;FLAVOR:RepRap
;TIME:11084
;Filament used: 7.55005m
;Layer height: 0.25
;Generated with Cura_SteamEngine 2.6.52
;This G-Code has been generated specifically for the LulzBot TAZ 6 with standard extruder
G26                                 ; clear potential 'probe fail' condition
G21                                 ; set units to Millimetres
M107                                ; disable fans
G90                                 ; absolute positioning
M82                                 ; set extruder to absolute mode
G92 E0                              ; set extruder position to 0
M140 S105    ; start bed heating up
G28 XY                              ; home X and Y
G1 X-19 Y258 F1000                  ; move to safe homing position
M109 R175 ; soften filament before homing Z
G28 Z                               ; home Z
M109 R170   ; wait for extruder to reach wiping temp
G1 E-30 F100                        ; retract filament
G1 X-15 Y100 F3000                  ; move above wiper pad
G1 Z1                               ; push nozzle into wiper
G1 X-17 Y95 F1000                   ; slow wipe
G1 X-17 Y90 F1000                   ; slow wipe
G1 X-17 Y85 F1000                   ; slow wipe
G1 X-15 Y90 F1000                   ; slow wipe
G1 X-17 Y80 F1000                   ; slow wipe
G1 X-15 Y95 F1000                   ; slow wipe
G1 X-17 Y75 F2000                   ; fast wipe
G1 X-15 Y65 F2000                   ; fast wipe
G1 X-17 Y70 F2000                   ; fast wipe
G1 X-15 Y60 F2000                   ; fast wipe
G1 X-17 Y55 F2000                   ; fast wipe
G1 X-15 Y50 F2000                   ; fast wipe
G1 X-17 Y40 F2000                   ; fast wipe
G1 X-15 Y45 F2000                   ; fast wipe
G1 X-17 Y35 F2000                   ; fast wipe
G1 X-15 Y40 F2000                   ; fast wipe
G1 X-17 Y70 F2000                   ; fast wipe
G1 X-15 Y30 Z2 F2000                ; fast wipe
G1 X-17 Y35 F2000                   ; fast wipe
G1 X-15 Y25 F2000                   ; fast wipe
G1 X-17 Y30 F2000                   ; fast wipe
G1 X-15 Y25 Z1.5 F1000              ; slow wipe
G1 X-17 Y23 F1000                   ; slow wipe
G1 Z10                              ; raise extruder
M109 R170  ; wait for extruder to reach probe temp
G1 X-9 Y-9                          ; move above first probe point
M204 S100                           ; set probing acceleration
G29                                 ; start auto-leveling sequence
M204 S500                           ; restore standard acceleration
G1 X0 Y0 Z15 F5000                  ; move up off last probe point
G4 S1                               ; pause
M400                                ; wait for moves to finish
M117 Heating...                     ; progress indicator message on LCD
M109 R245  ; wait for extruder to reach printing temp
M190 S105    ; wait for bed to reach printing temp
G1 Z2 E0 F75                        ; prime tiny bit of filment into the nozzle
M117 TAZ 6 Printing...              ; progress indicator message on LCD

;LAYER_COUNT:99
;LAYER:0
M107
G0 F1750 X96.209 Y88.472 Z0.4
;TYPE:SKIRT
G1 F600 X96.472 Y88.209 E0.01108
G1 X96.799 Y87.939 E0.02371
G1 X97.17 Y87.735 E0.03632
G1 X97.573 Y87.604 E0.04894
G1 X98.063 Y87.55 E0.06362
G1 X102.728 Y87.551 E0.20256
G1 X103.15 Y87.591 E0.21519
G1 X103.557 Y87.709 E0.22781
G1 X103.935 Y87.902 E0.24045
G1 X104.269 Y88.162 E0.25305
G1 X104.389 Y88.298 E0.25845
G1 X104.582 Y88.139 E0.2659
G1 X104.953 Y87.935 E0.27851
G1 X105.356 Y87.804 E0.29113
G1 X105.846 Y87.75 E0.30582
G1 X174.154 Y87.75 E2.34026
G1 X174.576 Y87.79 E2.35288
G1 X174.983 Y87.908 E2.3655
G1 X175.36 Y88.101 E2.37812
G1 X175.607 Y88.299 E2.38755
G1 X175.638 Y88.259 E2.38905
G1 X175.956 Y87.979 E2.40167
G1 X176.321 Y87.763 E2.41431
G1 X176.72 Y87.62 E2.42693
G1 X177.277 Y87.55 E2.44365
G1 X181.937 Y87.55 E2.58244
G1 X182.359 Y87.59 E2.59506
G1 X182.766 Y87.708 E2.60769
G1 X183.143 Y87.901 E2.6203
G1 X183.528 Y88.209 E2.63498
G1 X183.791 Y88.472 E2.64606
G1 X184.061 Y88.799 E2.65869
G1 X184.265 Y89.17 E2.6713
G1 X184.396 Y89.573 E2.68392
G1 X184.45 Y90.063 E2.6986
G1 X184.45 Y99.937 E2.99269
G1 X184.41 Y100.359 E3.00531
G1 X184.292 Y100.766 E3.01793
G1 X184.099 Y101.143 E3.03055
G1 X183.791 Y101.528 E3.04523
G1 X183.669 Y101.65 E3.05037
G1 X183.791 Y101.772 E3.05551
G1 X184.061 Y102.099 E3.06814
G1 X184.265 Y102.47 E3.08075
G1 X184.396 Y102.873 E3.09337
G1 X184.45 Y103.363 E3.10805
G1 X184.45 Y131.937 E3.95908
G1 X184.41 Y132.359 E3.97171
G1 X184.292 Y132.766 E3.98433
G1 X184.099 Y133.143 E3.99694
G1 X183.791 Y133.528 E4.01163
G1 X183.669 Y133.65 E4.01676
G1 X183.791 Y133.772 E4.0219
G1 X184.061 Y134.099 E4.03453
G1 X184.265 Y134.47 E4.04714
G1 X184.396 Y134.873 E4.05976
G1 X184.45 Y135.363 E4.07445
G1 X184.45 Y144.937 E4.35959
G1 X184.41 Y145.359 E4.37222
G1 X184.292 Y145.766 E4.38484
G1 X184.099 Y146.143 E4.39745
G1 X183.791 Y146.528 E4.41214
G1 X183.669 Y146.65 E4.41728
G1 X183.791 Y146.772 E4.42241
G1 X184.061 Y147.099 E4.43504
G1 X184.265 Y147.47 E4.44765
G1 X184.396 Y147.873 E4.46027
G1 X184.45 Y148.363 E4.47496
G1 X184.45 Y176.937 E5.32599
G1 X184.41 Y177.359 E5.33861
G1 X184.292 Y177.766 E5.35123
G1 X184.099 Y178.143 E5.36385
G1 X183.791 Y178.528 E5.37853
G1 X183.669 Y178.65 E5.38367
G1 X183.791 Y178.772 E5.38881
G1 X184.061 Y179.099 E5.40144
G1 X184.265 Y179.47 E5.41405
G1 X184.396 Y179.873 E5.42667
G1 X184.45 Y180.363 E5.44135
G1 X184.45 Y189.937 E5.7265
G1 X184.41 Y190.359 E5.73912
G1 X184.292 Y190.766 E5.75174
G1 X184.099 Y191.143 E5.76436
G1 X183.791 Y191.528 E5.77904
G1 X183.528 Y191.791 E5.79012
G1 X183.201 Y192.061 E5.80275
G1 X182.83 Y192.265 E5.81536
G1 X182.427 Y192.396 E5.82798
G1 X181.937 Y192.45 E5.84266
G1 X177.272 Y192.45 E5.9816
G1 X176.85 Y192.41 E5.99423
G1 X176.443 Y192.292 E6.00685
G1 X176.066 Y192.099 E6.01946
G1 X175.731 Y191.839 E6.03209
G1 X175.61 Y191.702 E6.03754
G1 X175.418 Y191.861 E6.04496
G1 X175.047 Y192.065 E6.05757
G1 X174.644 Y192.196 E6.07019
G1 X174.154 Y192.25 E6.08487
G1 X105.846 Y192.25 E8.11932
G1 X105.424 Y192.21 E8.13194
G1 X105.017 Y192.092 E8.14456
G1 X104.64 Y191.899 E8.15718
G1 X104.393 Y191.701 E8.16661
G1 X104.362 Y191.741 E8.16811
G1 X104.044 Y192.021 E8.18073
G1 X103.679 Y192.237 E8.19336
G1 X103.28 Y192.38 E8.20599
G1 X102.723 Y192.45 E8.22271
G1 X98.063 Y192.45 E8.3615
G1 X97.641 Y192.41 E8.37412
G1 X97.234 Y192.292 E8.38674
G1 X96.857 Y192.099 E8.39936
G1 X96.472 Y191.791 E8.41404
G1 X96.209 Y191.528 E8.42512
G1 X95.939 Y191.201 E8.43775
G1 X95.735 Y190.83 E8.45036
G1 X95.604 Y190.427 E8.46298
G1 X95.55 Y189.937 E8.47766
G1 X95.55 Y180.363 E8.76281
G1 X95.59 Y179.941 E8.77543
G1 X95.708 Y179.534 E8.78806
G1 X95.901 Y179.157 E8.80067
G1 X96.209 Y178.772 E8.81535
G1 X96.331 Y178.65 E8.82049
G1 X96.209 Y178.528 E8.82563
G1 X95.939 Y178.201 E8.83826
G1 X95.735 Y177.83 E8.85087
G1 X95.604 Y177.427 E8.86349
G1 X95.55 Y176.937 E8.87817
G1 X95.55 Y148.363 E9.72921
G1 X95.59 Y147.941 E9.74183
G1 X95.708 Y147.534 E9.75445
G1 X95.901 Y147.157 E9.76707
G1 X96.209 Y146.772 E9.78175
G1 X96.331 Y146.65 E9.78689
G1 X96.209 Y146.528 E9.79203
G1 X95.939 Y146.201 E9.80466
G1 X95.735 Y145.83 E9.81727
G1 X95.604 Y145.427 E9.82989
G1 X95.55 Y144.937 E9.84457
G1 X95.55 Y135.363 E10.12972
G1 X95.59 Y134.941 E10.14234
G1 X95.708 Y134.534 E10.15496
G1 X95.901 Y134.157 E10.16758
G1 X96.209 Y133.772 E10.18226
G1 X96.331 Y133.65 E10.1874
G1 X96.209 Y133.528 E10.19254
G1 X95.939 Y133.201 E10.20517
G1 X95.735 Y132.83 E10.21778
G1 X95.604 Y132.427 E10.2304
G1 X95.55 Y131.937 E10.24508
G1 X95.55 Y103.363 E11.09611
G1 X95.59 Y102.941 E11.10874
G1 X95.708 Y102.534 E11.12136
G1 X95.901 Y102.157 E11.13397
G1 X96.209 Y101.772 E11.14866
G1 X96.331 Y101.65 E11.15379
G1 X96.209 Y101.528 E11.15893
G1 X95.939 Y101.201 E11.17156
G1 X95.735 Y100.83 E11.18417
G1 X95.604 Y100.427 E11.19679
G1 X95.55 Y99.937 E11.21148
G1 X95.55 Y90.063 E11.50556
G1 X95.59 Y89.641 E11.51818
G1 X95.708 Y89.234 E11.5308
G1 X95.901 Y88.857 E11.54342
G1 X96.209 Y88.472 E11.5581
G0 F1750 X96.563 Y88.826
G1 F600 X96.826 Y88.563 E11.56918
G1 X97.116 Y88.328 E11.5803
G1 X97.45 Y88.161 E11.59142
G1 X97.812 Y88.068 E11.60255
G1 X98.063 Y88.05 E11.61004
G1 X102.728 Y88.051 E11.74898
G1 X103.1 Y88.091 E11.76013
G1 X103.454 Y88.209 E11.77124
G1 X103.776 Y88.399 E11.78238
G1 X104.049 Y88.654 E11.7935
G1 X104.263 Y88.96 E11.80462
G1 X104.313 Y89.081 E11.80852
G1 X104.463 Y88.909 E11.81532
G1 X104.609 Y88.763 E11.82147
G1 X104.899 Y88.528 E11.83259
G1 X105.233 Y88.361 E11.84371
G1 X105.595 Y88.268 E11.85484
G1 X105.846 Y88.25 E11.86234
G1 X174.154 Y88.25 E13.89678
G1 X174.525 Y88.29 E13.90789
G1 X174.88 Y88.408 E13.91903
G1 X175.202 Y88.598 E13.93017
G1 X175.391 Y88.763 E13.93764
G1 X175.537 Y88.909 E13.94379
G1 X175.681 Y89.086 E13.95059
G1 X175.685 Y89.074 E13.95096
G1 X175.875 Y88.752 E13.9621
G1 X176.13 Y88.479 E13.97323
G1 X176.436 Y88.265 E13.98435
G1 X176.781 Y88.122 E13.99547
G1 X177.277 Y88.05 E14.0104
G1 X181.937 Y88.05 E14.14919
G1 X182.308 Y88.09 E14.1603
G1 X182.663 Y88.208 E14.17144
G1 X182.985 Y88.398 E14.18258
G1 X183.174 Y88.563 E14.19005
G1 X183.437 Y88.826 E14.20113
G1 X183.672 Y89.116 E14.21225
G1 X183.839 Y89.45 E14.22337
G1 X183.932 Y89.812 E14.2345
G1 X183.95 Y90.063 E14.24199
G1 X183.95 Y99.937 E14.53608
G1 X183.91 Y100.308 E14.54719
G1 X183.792 Y100.663 E14.55833
G1 X183.602 Y100.985 E14.56947
G1 X183.437 Y101.174 E14.57694
G1 X182.961 Y101.65 E14.59699
G1 X183.437 Y102.126 E14.61704
G1 X183.672 Y102.416 E14.62815
G1 X183.839 Y102.75 E14.63928
G1 X183.932 Y103.112 E14.65041
G1 X183.95 Y103.363 E14.6579
G1 X183.95 Y131.937 E15.50893
G1 X183.91 Y132.308 E15.52005
G1 X183.792 Y132.663 E15.53119
G1 X183.602 Y132.985 E15.54232
G1 X183.437 Y133.174 E15.5498
G1 X182.961 Y133.65 E15.56984
G1 X183.437 Y134.126 E15.58989
G1 X183.672 Y134.416 E15.60101
G1 X183.839 Y134.75 E15.61213
G1 X183.932 Y135.112 E15.62326
G1 X183.95 Y135.363 E15.63076
G1 X183.95 Y144.937 E15.91591
G1 X183.91 Y145.308 E15.92702
G1 X183.792 Y145.663 E15.93816
G1 X183.602 Y145.985 E15.9493
G1 X183.437 Y146.174 E15.95677
G1 X182.961 Y146.65 E15.97682
G1 X183.437 Y147.126 E15.99687
G1 X183.672 Y147.416 E16.00798
G1 X183.839 Y147.75 E16.01911
G1 X183.932 Y148.112 E16.03024
G1 X183.95 Y148.363 E16.03773
G1 X183.95 Y176.937 E16.88876
G1 X183.91 Y177.308 E16.89988
G1 X183.792 Y177.663 E16.91102
G1 X183.602 Y177.985 E16.92215
G1 X183.437 Y178.174 E16.92963
G1 X182.961 Y178.65 E16.94967
G1 X183.437 Y179.126 E16.96972
G1 X183.672 Y179.416 E16.98084
G1 X183.839 Y179.75 E16.99196
G1 X183.932 Y180.112 E17.00309
G1 X183.95 Y180.363 E17.01059
G1 X183.95 Y189.937 E17.29574
G1 X183.91 Y190.308 E17.30685
G1 X183.792 Y190.663 E17.31799
G1 X183.602 Y190.985 E17.32913
G1 X183.437 Y191.174 E17.3366
G1 X183.174 Y191.437 E17.34768
G1 X182.884 Y191.672 E17.35879
G1 X182.55 Y191.839 E17.36992
G1 X182.188 Y191.932 E17.38105
G1 X181.937 Y191.95 E17.38854
G1 X177.272 Y191.95 E17.52748
G1 X176.901 Y191.91 E17.53859
G1 X176.546 Y191.792 E17.54974
G1 X176.224 Y191.602 E17.56087
G1 X175.951 Y191.348 E17.57198
G1 X175.737 Y191.041 E17.58312
G1 X175.687 Y190.92 E17.58702
G1 X175.537 Y191.091 E17.5938
G1 X175.391 Y191.237 E17.59995
G1 X175.101 Y191.472 E17.61106
G1 X174.767 Y191.639 E17.62219
G1 X174.405 Y191.732 E17.63332
G1 X174.154 Y191.75 E17.64081
G1 X105.846 Y191.75 E19.67526
G1 X105.475 Y191.71 E19.68637
G1 X105.12 Y191.592 E19.69751
G1 X104.798 Y191.402 E19.70865
G1 X104.609 Y191.237 E19.71612
G1 X104.463 Y191.091 E19.72227
G1 X104.319 Y190.914 E19.72906
G1 X104.315 Y190.926 E19.72944
G1 X104.125 Y191.248 E19.74058
G1 X103.87 Y191.521 E19.7517
G1 X103.564 Y191.735 E19.76282
G1 X103.219 Y191.878 E19.77395
G1 X102.723 Y191.95 E19.78887
G1 X98.063 Y191.95 E19.92766
G1 X97.692 Y191.91 E19.93878
G1 X97.337 Y191.792 E19.94992
G1 X97.015 Y191.602 E19.96106
G1 X96.826 Y191.437 E19.96853
G1 X96.563 Y191.174 E19.97961
G1 X96.328 Y190.884 E19.99072
G1 X96.161 Y190.55 E20.00184
G1 X96.068 Y190.188 E20.01298
G1 X96.05 Y189.937 E20.02047
G1 X96.05 Y180.363 E20.30562
G1 X96.09 Y179.992 E20.31673
G1 X96.208 Y179.637 E20.32787
G1 X96.398 Y179.315 E20.33901
G1 X96.563 Y179.126 E20.34648
G1 X97.039 Y178.65 E20.36653
G1 X96.563 Y178.174 E20.38658
G1 X96.328 Y177.884 E20.3977
G1 X96.161 Y177.55 E20.40882
G1 X96.068 Y177.188 E20.41995
G1 X96.05 Y176.937 E20.42744
G1 X96.05 Y148.363 E21.27847
G1 X96.09 Y147.992 E21.28959
G1 X96.208 Y147.637 E21.30073
G1 X96.398 Y147.315 E21.31187
G1 X96.563 Y147.126 E21.31934
G1 X97.039 Y146.65 E21.33939
G1 X96.563 Y146.174 E21.35944
G1 X96.328 Y145.884 E21.37055
G1 X96.161 Y145.55 E21.38167
G1 X96.068 Y145.188 E21.39281
G1 X96.05 Y144.937 E21.4003
G1 X96.05 Y135.363 E21.68545
G1 X96.09 Y134.992 E21.69656
G1 X96.208 Y134.637 E21.7077
G1 X96.398 Y134.315 E21.71884
G1 X96.563 Y134.126 E21.72631
G1 X97.039 Y133.65 E21.74636
G1 X96.563 Y133.174 E21.76641
G1 X96.328 Y132.884 E21.77753
G1 X96.161 Y132.55 E21.78865
G1 X96.068 Y132.188 E21.79978
G1 X96.05 Y131.937 E21.80727
G1 X96.05 Y103.363 E22.6583
G1 X96.09 Y102.992 E22.66942
G1 X96.208 Y102.637 E22.68056
G1 X96.398 Y102.315 E22.6917
G1 X96.563 Y102.126 E22.69917
G1 X97.039 Y101.65 E22.71922
G1 X96.563 Y101.174 E22.73927
G1 X96.328 Y100.884 E22.75038
G1 X96.161 Y100.55 E22.7615
G1 X96.068 Y100.188 E22.77264
G1 X96.05 Y99.937 E22.78013
G1 X96.05 Y90.063 E23.07421
G1 X96.09 Y89.692 E23.08533
G1 X96.208 Y89.337 E23.09647
G1 X96.398 Y89.015 E23.1076
G1 X96.563 Y88.826 E23.11508
G0 F1750 X96.916 Y89.179
G1 F600 X97.179 Y88.916 E23.12615
G1 X97.429 Y88.723 E23.13556
G1 X97.719 Y88.598 E23.14497
G1 X98.063 Y88.55 E23.15531
G1 X102.728 Y88.551 E23.29425
G1 X103.041 Y88.591 E23.30365
G1 X103.334 Y88.708 E23.31304
G1 X103.589 Y88.895 E23.32246
G1 X103.788 Y89.139 E23.33184
G1 X103.92 Y89.426 E23.34125
G1 X103.978 Y89.801 E23.35255
G1 X103.973 Y190.2 E26.34277
G1 X103.933 Y190.513 E26.35217
G1 X103.816 Y190.806 E26.36157
G1 X103.629 Y191.061 E26.37098
G1 X103.385 Y191.26 E26.38036
G1 X103.098 Y191.392 E26.38977
G1 X102.723 Y191.45 E26.40107
G1 X98.063 Y191.45 E26.53986
G1 X97.75 Y191.41 E26.54926
G1 X97.457 Y191.293 E26.55866
G1 X97.179 Y191.084 E26.56902
G1 X96.916 Y190.821 E26.58009
G1 X96.723 Y190.571 E26.5895
G1 X96.598 Y190.281 E26.59891
G1 X96.55 Y189.937 E26.60925
G1 X96.55 Y180.363 E26.8944
G1 X96.59 Y180.05 E26.90379
G1 X96.707 Y179.757 E26.91319
G1 X96.916 Y179.479 E26.92355
G1 X97.745 Y178.65 E26.95847
G1 X96.916 Y177.821 E26.99338
G1 X96.723 Y177.571 E27.00279
G1 X96.598 Y177.281 E27.0122
G1 X96.55 Y176.937 E27.02254
G1 X96.55 Y148.363 E27.87357
G1 X96.59 Y148.05 E27.88297
G1 X96.707 Y147.757 E27.89237
G1 X96.916 Y147.479 E27.90272
G1 X97.745 Y146.65 E27.93764
G1 X96.916 Y145.821 E27.97256
G1 X96.723 Y145.571 E27.98197
G1 X96.598 Y145.281 E27.99137
G1 X96.55 Y144.937 E28.00172
G1 X96.55 Y135.363 E28.28686
G1 X96.59 Y135.05 E28.29626
G1 X96.707 Y134.757 E28.30566
G1 X96.916 Y134.479 E28.31602
G1 X97.745 Y133.65 E28.35093
G1 X96.916 Y132.821 E28.38585
G1 X96.723 Y132.571 E28.39526
G1 X96.598 Y132.281 E28.40466
G1 X96.55 Y131.937 E28.41501
G1 X96.55 Y103.363 E29.26604
G1 X96.59 Y103.05 E29.27544
G1 X96.707 Y102.757 E29.28483
G1 X96.916 Y102.479 E29.29519
G1 X97.745 Y101.65 E29.33011
G1 X96.916 Y100.821 E29.36503
G1 X96.723 Y100.571 E29.37443
G1 X96.598 Y100.281 E29.38384
G1 X96.55 Y99.937 E29.39418
G1 X96.55 Y90.063 E29.68826
G1 X96.59 Y89.75 E29.69766
G1 X96.707 Y89.457 E29.70706
G1 X96.916 Y89.179 E29.71742
G0 F1750 X97.533 Y89.27
G1 F600 X97.731 Y89.127 E29.72469
G1 X98.063 Y89.05 E29.73484
G1 X102.728 Y89.051 E29.87378
G1 X102.969 Y89.091 E29.88106
G1 X103.184 Y89.206 E29.88832
G1 X103.351 Y89.384 E29.89559
G1 X103.452 Y89.606 E29.90285
G1 X103.478 Y89.801 E29.90871
G1 X103.473 Y190.2 E32.89893
G1 X103.433 Y190.441 E32.90621
G1 X103.318 Y190.656 E32.91347
G1 X103.14 Y190.823 E32.92074
G1 X102.918 Y190.924 E32.928
G1 X102.723 Y190.95 E32.93386
G1 X98.063 Y190.95 E33.07265
G1 X97.822 Y190.91 E33.07993
G1 X97.533 Y190.73 E33.09007
G1 X97.27 Y190.467 E33.10115
